X:1
T:[ID 2-15]
T:[ID 2-15]
T:Bezeichnung standardisiert: Anglaise [mit Trio]; Angeloise [mit Trio]
T:Urheber unbekannt Erstbeleg: 1776-1791 (Datum in der schriftlichen Quelle) Datum in der hier transkribierten schriftlichen Quelle: 1792
C:Urheber unbekannt
C:Erstbeleg: 1776-1791 (Datum in der schriftlichen Quelle)
C:Datum in der hier transkribierten schriftlichen Quelle: 1792
L:1/8
M:2/4
K:D
V:1 treble 
V:1
 d2 c/d/e/c/ | dc/B/ A2 | B/A/G/F/ EB | A/G/F/E/ D2 | f2 d/e/f/c/ | e2 c/d/e/c/ | dBA^G | A2 A2 :: %8
 A2 c/d/e/c/ | A2 d/e/f/d/ | Ae/f/ g/f/e/d/ | c/d/e/c/ A2 | d2 c/d/e/c/ | dc/B/ A2 | Bg f/e/d/c/ | %15
 d2 d2 :|[M:2/4]"^Trio" !fermata!a2 a2 | a3 d' | a>bag | fe/f/ d2 | a2 a2 | a3 d' | a>b a/ gf | %23
 f2 e2 :: e2 e2 | e3 g | fa b/a/g/f/ | f2 e2 | a2 a2 | a3 d' | agfe | e2 d2 :| %32

